src/assets/icon/icon-care-trans.svg

<svg viewBox="0 0 89 89" xmlns="http://www.w3.org/2000/svg"><g fill="none" fill-rule="evenodd" stroke="#e4c158" transform="translate(2 2)"><circle cx="42.5" cy="42.5" r="42.5" stroke-width="3"/><path d="m54.623844 31.0671587c0-3.2091602-2.0817958-6.1516605-4.6388272-6.5608911-2.7471256-.4369527-5.2183506 2.0250316-6.7721069 6.7668265h-1.2540939c-1.4362675-4.3774476-3.6513933-6.8169903-6.1477002-6.8169903-.2072555 0-.414511.0171613-.6244067.0501638-2.5583515.4092306-4.6388273 3.3517309-4.6388273 6.5608911 0 5.9166829 9.9548652 13.5310129 12.0379811 15.0570471 2.0817959-1.5273543 12.0379811-9.1443245 12.0379811-15.0570471zm1.3200989 0c0 7.2552631-12.449852 16.0418408-12.9805317 16.4141087h-.7564166c-.5293596-.3722679-12.9792116-9.1588456-12.9792116-16.4141087 0-3.8942915 2.5253491-7.34767 5.7503505-7.8638286 1.5088729-.2428982 5.0810603-.0686452 7.6077294 5.9668466 2.5266692-6.0394521 6.0988566-6.212385 7.6077295-5.9668466 3.2236813.5161586 5.7503505 3.9695371 5.7503505 7.8638286zm6.6981813 3.3081676c-1.8256966 0-3.3094877 1.4851112-3.3094877 3.3094878v5.8005142c-1.2725752.1438907-2.2705699 1.2131708-2.2705699 2.5240289v2.3748578l-5.2975566 5.2988766v7.841387h1.3200988v-7.2948661l5.2975566-5.2988766v-2.9213787c0-.5795234.4105507-1.0441982.9504711-1.1748879v.0396029h.7590568c.4435532.187454.7550966.6257269.7550966 1.135285v3.4045348h1.3200988v-3.4045348c0-1.0375977-.6244068-1.9273443-1.5141534-2.3260141v-5.998529c0-1.0970021.8923868-1.9893889 1.9893889-1.9893889 1.0956821 0 1.9880689.8923868 1.9880689 1.9893889v13.7277076l-6.8117099 6.8103897v3.3015672h1.3200988v-2.7550463l6.8117099-6.8103897v-14.2742285c0-1.8243766-1.4837911-3.3094878-3.3081677-3.3094878zm-34.5324649 14.0088887 5.2975566 5.2988766v7.841387h-1.3200988v-7.2948661l-5.2975566-5.2988766v-2.9213787c0-.5795234-.4105507-1.0441982-.9504711-1.1748879v.0396029h-.7590568c-.4435532.187454-.7550966.6257269-.7550966 1.135285v3.4045348h-1.3200988v-3.4045348c0-1.0375977.6244068-1.9273443 1.5141534-2.3260141v-5.998529c0-1.0970021-.8923868-1.9893889-1.989389-1.9893889-1.0970021 0-1.9880688.8923868-1.9880688 1.9893889v13.7277076l6.8103898 6.8103897v3.3015672h-1.3200988v-2.7550463l-6.8103898-6.8103897v-14.2742285c0-1.8243766 1.4837911-3.3094878 3.3081676-3.3094878 1.8243766 0 3.3094878 1.4851112 3.3094878 3.3094878v5.8005142c1.2725752.1438907 2.2705699 1.2131708 2.2705699 2.5240289z" fill="#e4c158"/></g></svg>

<?xml version="1.0" encoding="UTF-8"?>
<svg viewBox="0 0 89 89" version="1.1" xmlns="http://www.w3.org/2000/svg" xmlns:xlink="http://www.w3.org/1999/xlink">
    <!-- Generator: Sketch 50.2 (55047) - http://www.bohemiancoding.com/sketch -->
    <title>care copy</title>
    <desc>Created with Sketch.</desc>
    <defs></defs>
    <g id="AAC" stroke="none" stroke-width="1" fill="none" fill-rule="evenodd">
        <g id="AAC-Mobile" transform="translate(-116.000000, -2564.000000)" stroke="#E4C158">
            <g id="what-happens-when-you-call" transform="translate(0.000000, 1754.000000)">
                <g id="care" transform="translate(11.000000, 812.000000)">
                    <g transform="translate(107.000000, 0.000000)" id="Group-Copy-6">
                        <g>
                            <g id="Group-4">
                                <circle id="Oval" stroke-width="3" cx="42.5" cy="42.5" r="42.5"></circle>
                                <path d="M54.623844,31.0671587 C54.623844,27.8579985 52.5420482,24.9154982 49.9850168,24.5062676 C47.2378912,24.0693149 44.7666662,26.5312992 43.2129099,31.2730941 L41.958816,31.2730941 C40.5225485,26.8956465 38.3074227,24.4561038 35.8111158,24.4561038 C35.6038603,24.4561038 35.3966048,24.4732651 35.1867091,24.5062676 C32.6283576,24.9154982 30.5478818,27.8579985 30.5478818,31.0671587 C30.5478818,36.9838416 40.502747,44.5981716 42.5858629,46.1242058 C44.6676588,44.5968515 54.623844,36.9798813 54.623844,31.0671587 Z M55.9439429,31.0671587 C55.9439429,38.3224218 43.4940909,47.1089995 42.9634112,47.4812674 L42.2069946,47.4812674 C41.677635,47.1089995 29.227783,38.3224218 29.227783,31.0671587 C29.227783,27.1728672 31.7531321,23.7194887 34.9781335,23.2033301 C36.4870064,22.9604319 40.0591938,23.1346849 42.5858629,29.1701767 C45.1125321,23.1307246 48.6847195,22.9577917 50.1935924,23.2033301 C53.4172737,23.7194887 55.9439429,27.1728672 55.9439429,31.0671587 Z M62.6421242,34.3753263 C60.8164276,34.3753263 59.3326365,35.8604375 59.3326365,37.6848141 L59.3326365,43.4853283 C58.0600613,43.629219 57.0620666,44.6984991 57.0620666,46.0093572 L57.0620666,48.384215 L51.76451,53.6830916 L51.76451,61.5244786 L53.0846088,61.5244786 L53.0846088,54.2296125 L58.3821654,48.9307359 L58.3821654,46.0093572 C58.3821654,45.4298338 58.7927161,44.965159 59.3326365,44.8344693 L59.3326365,44.8740722 L60.0916933,44.8740722 C60.5352465,45.0615262 60.8467899,45.4997991 60.8467899,46.0093572 L60.8467899,49.413892 L62.1668887,49.413892 L62.1668887,46.0093572 C62.1668887,44.9717595 61.5424819,44.0820129 60.6527353,43.6833431 L60.6527353,37.6848141 C60.6527353,36.587812 61.5451221,35.6954252 62.6421242,35.6954252 C63.7378063,35.6954252 64.6301931,36.587812 64.6301931,37.6848141 L64.6301931,51.4125217 L57.8184832,58.2229114 L57.8184832,61.5244786 L59.138582,61.5244786 L59.138582,58.7694323 L65.9502919,51.9590426 L65.9502919,37.6848141 C65.9502919,35.8604375 64.4665008,34.3753263 62.6421242,34.3753263 Z M28.1096593,48.384215 L33.4072159,53.6830916 L33.4072159,61.5244786 L32.0871171,61.5244786 L32.0871171,54.2296125 L26.7895605,48.9307359 L26.7895605,46.0093572 C26.7895605,45.4298338 26.3790098,44.965159 25.8390894,44.8344693 L25.8390894,44.8740722 L25.0800326,44.8740722 C24.6364794,45.0615262 24.324936,45.4997991 24.324936,46.0093572 L24.324936,49.413892 L23.0048372,49.413892 L23.0048372,46.0093572 C23.0048372,44.9717595 23.629244,44.0820129 24.5189906,43.6833431 L24.5189906,37.6848141 C24.5189906,36.587812 23.6266038,35.6954252 22.5296016,35.6954252 C21.4325995,35.6954252 20.5415328,36.587812 20.5415328,37.6848141 L20.5415328,51.4125217 L27.3519226,58.2229114 L27.3519226,61.5244786 L26.0318238,61.5244786 L26.0318238,58.7694323 L19.221434,51.9590426 L19.221434,37.6848141 C19.221434,35.8604375 20.7052251,34.3753263 22.5296016,34.3753263 C24.3539782,34.3753263 25.8390894,35.8604375 25.8390894,37.6848141 L25.8390894,43.4853283 C27.1116646,43.629219 28.1096593,44.6984991 28.1096593,46.0093572 L28.1096593,48.384215 Z" id="Fill-1" fill="#E4C158"></path>
                            </g>
                        </g>
                    </g>
                </g>
            </g>
        </g>
    </g>
</svg>
